lib/preview/nrk-logo-preview-nrk-3-with-bg.svg

<svg width="57" height="24" viewBox="0 0 57 24" fill="none" xmlns="http://www.w3.org/2000/svg">
<rect width="57" height="24" fill="#064E42"/>
<path d="M6.00425 18V6.00109H9.94144V18H6.00425ZM15.2981 7.91078L17.5623 18H13.2534L10.5497 6.00109H12.9664C13.5206 5.9939 14.0583 6.18925 14.4788 6.55039C14.8999 6.89638 15.1892 7.3767 15.2981 7.91078ZM18.1538 18V6.00109H22.091V18H18.1538ZM25.0647 10.5641C24.6405 10.5682 24.223 10.4572 23.8568 10.243C23.4955 10.0341 23.1953 9.73396 22.9865 9.3726C22.772 9.00633 22.661 8.58876 22.6652 8.16432C22.6604 7.74246 22.7715 7.32738 22.9865 6.96443C23.1976 6.60699 23.4974 6.31009 23.8568 6.10252C24.2231 5.8885 24.6405 5.77751 25.0647 5.78138C25.4865 5.77684 25.9014 5.88793 26.2645 6.10252C26.6203 6.31191 26.9169 6.60856 27.1263 6.96443C27.3411 7.32748 27.4522 7.74249 27.4476 8.16432C27.4515 8.58873 27.3405 9.00623 27.1263 9.3726C26.9191 9.73238 26.6222 10.0323 26.2645 10.243C25.9013 10.458 25.4861 10.5691 25.0642 10.5641H25.0647ZM28.0559 18V6.00109H31.9934V18H28.0559ZM36.978 12.5582C36.9891 12.5699 37.0735 12.7079 37.2314 12.9723C37.3893 13.2367 37.5949 13.5747 37.8482 13.9863C38.1017 14.3977 38.3691 14.8343 38.6506 15.296C38.932 15.7577 39.1969 16.1944 39.4451 16.6058C39.6923 17.0172 39.974 17.4819 40.29 18H35.9641C35.6935 17.5606 35.4484 17.1635 35.2287 16.8086C35.0091 16.4537 34.7756 16.0706 34.5281 15.6594C34.2801 15.2485 34.0348 14.8485 33.7925 14.4595C33.5501 14.0704 33.3418 13.7296 33.1675 13.4371C32.9925 13.1443 32.8713 12.9471 32.8039 12.8455C32.6368 12.5934 32.5379 12.3023 32.5169 12.0005C32.5337 11.7109 32.6269 11.431 32.787 11.1891C32.8546 11.0764 32.9785 10.8764 33.1588 10.5891C33.339 10.3018 33.5503 9.96105 33.7925 9.56672C34.0347 9.17239 34.2799 8.7696 34.5281 8.35837C34.7763 7.94715 35.0098 7.56124 35.2287 7.20071C35.4488 6.84055 35.6939 6.44059 35.9641 6.00081H40.29L36.9439 11.4595C36.8403 11.6216 36.782 11.8083 36.7749 12.0005C36.786 12.2023 36.8565 12.3963 36.9774 12.5582H36.978Z" fill="white"/>
<path d="M51.1173 13.504C51.0002 13.1666 50.8164 12.8563 50.5769 12.5915C50.3278 12.3237 50.0255 12.1107 49.6894 11.9663C49.3046 11.8008 48.8975 11.6926 48.4812 11.6453V11.5946C48.9866 11.4339 49.4569 11.1787 49.8672 10.8426C50.2329 10.5425 50.5345 10.1719 50.754 9.75274C50.9618 9.35067 51.0692 8.90424 51.0669 8.45164C51.0746 8.06749 50.9875 7.68735 50.8134 7.34486C50.6353 7.01348 50.3805 6.72957 50.0702 6.51688C49.7092 6.27123 49.3049 6.09634 48.8787 6.0015C48.3549 5.88271 47.8189 5.82601 47.2819 5.83254C46.9285 5.83364 46.5756 5.85905 46.2258 5.90858C45.8638 5.95858 45.5055 6.03195 45.153 6.12824C44.8138 6.22008 44.4852 6.34753 44.1727 6.50844L44.4092 7.84334C44.6571 7.74195 44.8966 7.65465 45.1277 7.58143C45.3588 7.50821 45.5812 7.44906 45.7949 7.404C46.0089 7.35932 46.2174 7.32551 46.4204 7.30261C46.6167 7.28044 46.8141 7.26915 47.0117 7.26881C47.3693 7.26291 47.7265 7.29693 48.0765 7.37021C48.3302 7.4212 48.5712 7.52169 48.786 7.66591C48.9612 7.7893 49.0987 7.95895 49.1831 8.15594C49.2725 8.37867 49.3157 8.61724 49.3101 8.85718C49.3149 9.18677 49.2364 9.51223 49.082 9.80343C48.9249 10.0906 48.7055 10.3388 48.4399 10.53C48.1404 10.7441 47.8059 10.9043 47.4513 11.0032C47.0392 11.1199 46.6124 11.1768 46.184 11.1721H45.8627L45.6603 12.4901H46.201C46.6996 12.4834 47.1977 12.5258 47.6879 12.6169C48.0549 12.6825 48.4069 12.8141 48.7268 13.0055C48.9887 13.1649 49.202 13.3928 49.3439 13.6645C49.4849 13.9566 49.5543 14.2781 49.5463 14.6023C49.5553 14.9303 49.4919 15.2563 49.3605 15.557C49.235 15.8239 49.0393 16.0517 48.7944 16.216C48.5018 16.4069 48.1747 16.5389 47.8316 16.6047C47.3783 16.6953 46.9166 16.7378 46.4544 16.7314C46.2854 16.7314 46.1192 16.7258 45.9556 16.7145C45.7921 16.7032 45.6204 16.6863 45.4403 16.6638C45.2603 16.6413 45.0717 16.6103 44.8745 16.5709C44.6774 16.5314 44.4605 16.4836 44.2239 16.4272L44.0043 17.8635C44.2517 17.9086 44.4911 17.9508 44.7224 17.9902C44.9537 18.0297 45.1817 18.0635 45.4065 18.0916C45.6318 18.1194 45.8516 18.1391 46.0658 18.1508C46.28 18.1624 46.4884 18.168 46.691 18.1677C47.2295 18.1718 47.767 18.1237 48.2962 18.024C48.7459 17.9401 49.1812 17.7922 49.5889 17.5847C49.9448 17.4041 50.2652 17.1608 50.5348 16.8666C50.789 16.5841 50.9843 16.2538 51.1094 15.895C51.2436 15.5007 51.3094 15.0864 51.304 14.6699C51.3089 14.2734 51.2457 13.8791 51.1173 13.504Z" fill="#BEF7ED"/>
</svg>

<svg xmlns="http://www.w3.org/2000/svg" viewBox="0 0 57 24"><path fill="#064E42" d="M0 0h57v24H0z"/><path fill="#fff" d="M6.004 18V6.001h3.937V18H6.004Zm9.294-10.09L17.562 18h-4.309L10.55 6.001h2.416a2.276 2.276 0 0 1 1.513.55c.42.345.71.826.82 1.36ZM18.154 18V6.001h3.937V18h-3.937Zm6.91-7.436a2.382 2.382 0 0 1-2.4-2.4 2.303 2.303 0 0 1 .323-1.2 2.411 2.411 0 0 1 3.278-.861c.355.209.652.506.861.861.215.363.326.778.322 1.2a2.4 2.4 0 0 1-1.183 2.079 2.303 2.303 0 0 1-1.2.321ZM28.057 18V6.001h3.937V18h-3.937Zm8.922-5.442c.011.012.096.15.253.414.158.265.364.603.617 1.014a327.152 327.152 0 0 1 1.597 2.62c.247.411.529.876.845 1.394h-4.326c-.27-.44-.516-.837-.735-1.191-.22-.355-.453-.738-.7-1.15-.249-.41-.494-.81-.737-1.2-.242-.389-.45-.73-.625-1.022-.175-.293-.296-.49-.363-.591a1.75 1.75 0 0 1-.287-.845c.017-.29.11-.57.27-.812.068-.113.191-.313.372-.6a182.106 182.106 0 0 0 1.37-2.23c.247-.412.48-.798.7-1.158l.735-1.2h4.326l-3.346 5.458a1.078 1.078 0 0 0-.17.542c.012.201.082.395.203.557h.001Z"/><path fill="#BEF7ED" d="M51.117 13.504a2.661 2.661 0 0 0-.54-.912 2.63 2.63 0 0 0-.888-.626 4.281 4.281 0 0 0-1.208-.32v-.051c.506-.161.976-.416 1.386-.752.366-.3.668-.671.887-1.09.208-.402.315-.849.313-1.301a2.34 2.34 0 0 0-.254-1.107 2.356 2.356 0 0 0-.743-.828A3.45 3.45 0 0 0 48.88 6a6.844 6.844 0 0 0-1.597-.168 7.704 7.704 0 0 0-1.056.076c-.362.05-.72.123-1.073.22a4.99 4.99 0 0 0-.98.38l.236 1.334a9.41 9.41 0 0 1 .719-.262 6.782 6.782 0 0 1 1.293-.279 5.35 5.35 0 0 1 .59-.033 4.81 4.81 0 0 1 1.066.101c.253.051.494.152.709.296.175.123.313.293.397.49.09.223.133.461.127.701a1.96 1.96 0 0 1-.228.946 2.19 2.19 0 0 1-.642.727 3.16 3.16 0 0 1-.989.473 4.471 4.471 0 0 1-1.267.17h-.321l-.203 1.317h.541a7.58 7.58 0 0 1 1.487.127c.367.065.719.197 1.039.388.262.16.475.388.617.66.14.292.21.613.202.937.01.328-.054.654-.185.955a1.628 1.628 0 0 1-.567.659c-.292.19-.62.323-.962.389-.454.09-.915.133-1.378.126-.169 0-.335-.005-.498-.017a7.887 7.887 0 0 1-1.081-.144c-.198-.039-.414-.086-.651-.143l-.22 1.436c.248.046.487.088.718.127.232.04.46.074.684.102a9.71 9.71 0 0 0 1.285.076 8.327 8.327 0 0 0 1.605-.144c.45-.084.885-.232 1.293-.44.356-.18.676-.423.946-.717a2.86 2.86 0 0 0 .574-.972c.135-.394.2-.809.195-1.225a3.468 3.468 0 0 0-.187-1.166Z"/></svg>
